Papirus/48x48/apps/tokodon.svg

<svg width="48" height="48" version="1.1" xmlns="http://www.w3.org/2000/svg">
 <circle transform="rotate(90)" cx="25" cy="-24" r="20" style="opacity:.2"/>
 <circle transform="rotate(90)" cx="24" cy="-24" r="20" style="fill:#50beee;opacity:.98"/>
 <path d="m19 21c-1.278448 5.476348-3.727771 7.434659-5 8-0.428264 0.190307-1 0.347253-1 0.5 0 0.247937 0.522635 0.48757 1 0.5 1.165827 0.03036 3.943883-1.767371 6.5-5 2.945775-3.725414 1.5-4 1.5-4z" style="opacity:.2"/>
 <path d="m19 20c-1.278448 5.476348-3.727771 7.434659-5 8-0.428264 0.190307-1 0.347253-1 0.5 0 0.247937 0.522635 0.48757 1 0.5 1.165827 0.03036 3.943883-1.767371 6.5-5 2.945775-3.725414 1.5-4 1.5-4z" style="fill:#e4e4e4"/>
 <path d="m29 21c1.244889 5.33257 3.858634 7.396789 5 8 0.425344 0.224794 1 0.341196 1 0.5 0 0.233802-0.528358 0.489708-1 0.5-1.134687 0.02476-3.955065-1.781514-6.5-5-2.945775-3.725414-1.5-4-1.5-4z" style="opacity:.2"/>
 <path d="m29 20c1.244889 5.33257 3.858634 7.396789 5 8 0.425344 0.224794 1 0.341196 1 0.5 0 0.233802-0.528358 0.489708-1 0.5-1.134687 0.02476-3.955065-1.781514-6.5-5-2.945775-3.725414-1.5-4-1.5-4z" style="fill:#e4e4e4"/>
 <path d="m31 13c3 0 5 2 5 5v3c0 1.0629-0.873559 2-2 2h-6v7c0 0.897342 0.399351 2 0.399351 2 0.466546 1.036675 1.364738 1.706237 2.77123 1.859358 0.707241 0.07699 1.332719-0.08535 1.528849-0.297219 0.112063-0.121057 0.30057-0.363796 0.30057-0.562139 0-0.356874 0.285714-1 1-1 0.635068-8e-3 1 0.260035 1 0.659294 0 0.58101-0.85157 1.123036-1 1.340706 0 0 0.789517 0.279525 1 0.361076 0.26292 0.101867 0.5 0.424642 0.5 0.638924 0 0.403662-0.5 1-1 1-0.612756 0-0.967338-0.669974-1.5-0.5-1.405277 0.448423-1.714286 1.5-6 1.5-2.142857 0-5.929767-2.718837-6.571429-4.857145-0.428571-1.428192-0.428571-3.016786-0.428571-5.142855v-4h-3c-3 0-5-2-5-5v-3c0-1 1-2 2-2z" style="opacity:.2"/>
 <path d="m31 12c3 0 5 2 5 5v3c0 1.0629-0.873559 2-2 2h-6v7c0 0.897342 0.399351 2 0.399351 2 0.466546 1.036675 1.364738 1.706237 2.77123 1.859358 0.707241 0.07699 1.332719-0.08535 1.528849-0.297219 0.112063-0.121057 0.30057-0.363796 0.30057-0.562139 0-0.356874 0.285714-1 1-1 0.635068-8e-3 1 0.260035 1 0.659294 0 0.58101-0.85157 1.123036-1 1.340706 0 0 0.789517 0.279525 1 0.361076 0.26292 0.101867 0.5 0.424642 0.5 0.638924 0 0.403662-0.5 1-1 1-0.612756 0-0.967338-0.669974-1.5-0.5-1.405277 0.448423-1.714286 1.5-6 1.5-2.142857 0-5.929767-2.718837-6.571429-4.857145-0.428571-1.428192-0.428571-3.016786-0.428571-5.142855v-4h-3c-3 0-5-2-5-5v-3c0-1 1-2 2-2z" style="fill:#4f4f4d"/>
 <ellipse transform="matrix(.5593716 -.82891701 .89658382 .44287408 0 0)" cx="-3.5433362" cy="32.882637" rx="1.6688571" ry="1.309548" style="fill:#e4e4e4;opacity:.98"/>
 <ellipse transform="matrix(-.55937162 -.828917 -.89658383 .44287407 0 0)" cx="-24.995979" cy="-7.2697701" rx="1.6688572" ry="1.3095479" style="fill:#e4e4e4;opacity:.98"/>
 <path d="M 24,4 C 12.92,4 4,12.92 4,24 4,24.08104 4.00806,24.160081 4.012557,24.239956 4.2636579,13.381558 13.079091,5 24,5 34.920909,5 43.736342,13.381558 43.987444,24.239956 43.991943,24.160081 44,24.081036 44,24 44,12.92 35.08,4 24,4 Z" style="fill:#ffffff;opacity:.2"/>
</svg>

<svg xmlns="http://www.w3.org/2000/svg" width="48" height="48" version="1.1">
 <circle style="opacity:0.2" cx="24" cy="25" r="20"/>
 <circle style="fill:#50beee" cx="24" cy="24" r="20"/>
 <path style="opacity:0.2" d="M 29,21 C 30.245,26.333 32.859,28.397 34,29 34.425,29.225 35,29.341 35,29.5 35,29.734 34.472,29.99 34,30 32.865,30.025 30.045,28.218 27.5,25 24.554,21.275 26,21 26,21 Z M 19,21 C 17.722,26.476 15.272,28.435 14,29 13.572,29.19 13,29.347 13,29.5 13,29.748 13.523,29.988 14,30 15.166,30.03 17.944,28.233 20.5,25 23.446,21.275 22,21 22,21 Z"/>
 <path style="fill:#e4e4e4" d="M 29,20 C 30.245,25.333 32.859,27.397 34,28 34.425,28.225 35,28.341 35,28.5 35,28.734 34.472,28.99 34,29 32.865,29.025 30.045,27.218 27.5,24 24.554,20.275 26,20 26,20 Z M 19,20 C 17.722,25.476 15.272,27.435 14,28 13.572,28.19 13,28.347 13,28.5 13,28.748 13.523,28.988 14,29 15.166,29.03 17.944,27.233 20.5,24 23.446,20.275 22,20 22,20 Z"/>
 <path style="opacity:0.2" d="M 31,13 C 34,13 36,15 36,18 V 21 C 36,22.063 35.126,23 34,23 H 28 V 30 C 28,30.897 28.399,32 28.399,32 28.866,33.037 29.764,33.706 31.171,33.859 31.878,33.936 32.503,33.774 32.699,33.562 32.811,33.441 33,33.198 33,33 33,32.643 33.286,32 34,32 34.635,31.992 35,32.26 35,32.659 35,33.24 34.148,33.782 34,34 34,34 34.79,34.28 35,34.361 35.263,34.463 35.5,34.786 35.5,35 35.5,35.404 35,36 34.5,36 33.887,36 33.533,35.33 33,35.5 31.595,35.948 31.286,37 27,37 24.857,37 21.07,34.281 20.429,32.143 20,30.715 20,29.126 20,27 V 23 H 17 C 14,23 12,21 12,18 V 15 C 12,14 13,13 14,13 Z"/>
 <path style="fill:#4f4f4d" d="M 31,12 C 34,12 36,14 36,17 V 20 C 36,21.063 35.126,22 34,22 H 28 V 29 C 28,29.897 28.399,31 28.399,31 28.866,32.037 29.764,32.706 31.171,32.859 31.878,32.936 32.503,32.774 32.699,32.562 32.811,32.441 33,32.198 33,32 33,31.643 33.286,31 34,31 34.635,30.992 35,31.26 35,31.659 35,32.24 34.148,32.782 34,33 34,33 34.79,33.28 35,33.361 35.263,33.463 35.5,33.786 35.5,34 35.5,34.404 35,35 34.5,35 33.887,35 33.533,34.33 33,34.5 31.595,34.948 31.286,36 27,36 24.857,36 21.07,33.281 20.429,31.143 20,29.715 20,28.126 20,26 V 22 H 17 C 14,22 12,20 12,17 V 14 C 12,13 13,12 14,12 Z"/>
 <ellipse style="opacity:0.1" cx="-4.448" cy="33.447" rx="1.669" ry="1.31" transform="matrix(0.55937,-0.82892,0.89658,0.44287,0,0)"/>
 <ellipse style="fill:#e4e4e4" cx="-3.543" cy="32.883" rx="1.669" ry="1.31" transform="matrix(.5593716 -.82891701 .89658382 .44287408 0 0)"/>
 <ellipse style="opacity:0.1" cx="-25.901" cy="-6.705" rx="1.669" ry="1.31" transform="matrix(-0.55937,-0.82892,-0.89658,0.44287,0,0)"/>
 <ellipse style="fill:#e4e4e4" cx="-24.996" cy="-7.27" rx="1.669" ry="1.31" transform="matrix(-.55937162 -.828917 -.89658383 .44287407 0 0)"/>
 <path style="fill:#ffffff;opacity:0.2" d="M 24,4 C 12.92,4 4,12.92 4,24 4,24.08104 4.00806,24.160081 4.012557,24.239956 4.2636579,13.381558 13.079091,5 24,5 34.920909,5 43.736342,13.381558 43.987444,24.239956 43.991943,24.160081 44,24.081036 44,24 44,12.92 35.08,4 24,4 Z"/>
 <path style="fill:#ffffff;opacity:0.1" d="M 14 12 C 13 12 12 13 12 14 L 12 15 C 12 14 13 13 14 13 L 31 13 C 34 13 36 15 36 18 L 36 17 C 36 14 34 12 31 12 L 14 12 z M 28 29 L 28 30 C 28 30.897 28.398 32 28.398 32 C 28.865 33.037 29.765 33.706 31.172 33.859 C 31.879 33.936 32.503 33.774 32.699 33.562 C 32.811 33.442 33 33.198 33 33 C 33 32.643 33.286 32 34 32 C 34.343 31.996 34.605 32.075 34.775 32.209 C 34.905 32.036 35 31.85 35 31.658 C 35 31.259 34.635 30.992 34 31 C 33.286 31 33 31.643 33 32 C 33 32.198 32.811 32.442 32.699 32.562 C 32.503 32.774 31.879 32.936 31.172 32.859 C 29.765 32.706 28.865 32.037 28.398 31 C 28.398 31 28 29.897 28 29 z M 34.734 33.266 C 34.471 33.592 34.094 33.862 34 34 C 34 34 34.79 34.28 35 34.361 C 35.098 34.399 35.188 34.472 35.268 34.555 C 35.408 34.375 35.5 34.171 35.5 34 C 35.5 33.786 35.263 33.463 35 33.361 C 34.944 33.34 34.846 33.306 34.734 33.266 z"/>
</svg>
